!!!!SEGMENT: pl-wtm--a-38-327-88_boczkowski-jerzy--letnia-przygoda-liczymy-zielone-sztachety.krn
!!!cenid: 19xx:36
!!!COM: Boczkowski, Jerzy
!!!COM-rismID: pe50047498
!!!CDT: 1882-1953
!!!CNT: Polish
!!!OTL: Letnia przygoda/Liczymy zielone sztachety
!!!PDT:
!!!AGN: Secular
!!!YEC: Copyright 2022 Narodowy Instytut Fryderyka Chopina (https://polishscores.org)
!!!YEM: License CC-BY-4.0 (https://creativecommons.org/licenses/by/4.0)
!!!SMS-siglum: PL-Wtm
!!!SMS-shelfmark: A.38.327/88
!!!SMS-variant:
!!!SMS-altvar:
!!!SMS-shelfwork: W
!!!NIFC-rismSourceID: 1001219714
!!!NIFC-rismChildID: 1001219714
!!!NIFC-islandoraID: pl-wtm:96823
!!!URL-pdf-islandora: https://repozytorium.nifc.pl/islandora/object/pl-wtm%3A96823/datastream/PDF/view
!!!URL-scan: https://polish.musicsources.pl/pl/lokalizacje/galeria/druki-muzyczne/21796/2 @EN{Scan on Polish Music Sources Website} @PL{Skany w portalu Dziedzictwo Muzyki Polskiej w otwartym dostępie}
!!!IIIF:
!!!ONB-nifc:
!!!AIN: 1 piano 1 vox
!!!key:
**kern	**kern	**kern	**text	**text
*part2	*part2	*part1	*part1	*part1
*staff3	*staff2	*staff1	*staff1	*staff1
*I"[Pianoforte]	*	*I"[Voce]	*	*
*Ipiano	*	*Ivox	*	*
*ICklav	*	*ICvox	*	*
*IGacmp	*	*IGsolo	*	*
*clefF4	*clefG2	*clefG2	*	*
*k[b-]	*k[b-]	*k[b-]	*	*
*d:	*d:	*d:	*	*
*M2/4	*M2/4	*M2/4	*	*
8r	16e/LL	8r	.	.
.	16f/JJ	.	.	.
=1	=1	=1	=1	=1
*	*^	*	*	*
4GG/ 4E	8g/L	4B-\	2r	.	.
.	16f/L	.	.	.	.
.	16e/JJ	.	.	.	.
4GG#X/ 4F	8b-/L	4d\	.	.	.
.	16a/L	.	.	.	.
.	16g#X/JJ	.	.	.	.
=2	=2	=2	=2	=2	=2
8AA\L 8F	8b-/L	4d\	2r	.	.
8F\ 8A	[8a/J	.	.	.	.
8A\J 8d	8a/L]	4ryy	.	.	.
8r	16d/L	.	.	.	.
.	16e/JJ	.	.	.	.
=3	=3	=3	=3	=3	=3
8BBn/L 8D	8f/L	8A\L	2r	.	.
8BB/J 8D	16f/L	8A-X\J	.	.	.
.	16f/JJ	.	.	.	.
8BB-X/L 8D	8e/L	8A-\L	.	.	.
8AA/J 8C#X	8e/J	8G\J	.	.	.
*	*v	*v	*	*	*
=4	=4	=4	=4	=4
(8D/L	4.F/ 4.A 4.d	4r	.	.
8AA/	.	.	.	.
8DD/J)	.	8r	.	.
*	*	*	*v:1	*v:2
8r	8A/	8A/	Li-	Swym
=5	=5	=5	=5	=5
(8CC#X\L	8e/L	8e/	-czy-	ryt-
8E\ 8G 8A	16e/L	16e/	-my	-mem
.	16e/JJ	16e/	zie-	cię
8G\ 8A 8c#X	8a/L	8a/	-lo-	mia-
8AA\J)	16a/L	16a/	-ne	-sto
.	16a/JJ	16a/	szta-	o-
!!LO:LB:g=original
=6	=6	=6	=6	=6
*	*	*	*v:1	*v:2
(8DD/L	8f/	8f/	-che-	-gar-
8AA/ 8F	4d/	4d/	-ty	-nie,
8D/J) 8A	.	.	.	.
8r	8A/	8A/	i	po-
=7	=7	=7	=7	=7
*	*^	*	*	*
(8BBn/L 8D	8e/L	4G#X\	8e/	kwiat-	-grą-
8E/J)	16e/L	.	16e/	-ki	-ży
.	16e/JJ	.	16e/	nie-	w bła-
8AA/L 8C#X	8a/L	8A\L	8a/	-bies-	-hos-
8CC#X/J 8C#	16a/L	8A\J	16a/	-kie	-tek
.	16g/JJ	.	16g/	na	po-
=8	=8	=8	=8	=8	=8
8DD/L	8f/	8A\	8f/	to-	-wo-
8AA/ 8F	4d/	8ryy	4d/	-rze,	-dzi,
8D/J 8A	.	4ryy	.	.	.
8r	8d/	.	8d/	od-	i
=9	=9	=9	=9	=9	=9
8D\L 8A	8a/L	8c\L	8a/	-jeż-	zno-
8E-X\J 8G	16a/L	8c#X\J	16a/	-dżasz	-wu
.	16a/JJ	.	16a/	mój	spo-
8D/L 8F#X	8dd/L	8d\L	8dd\	mi-	-tka-
8FF#X/J 8F#	16dd/L	8d\J 8a	16dd\	-ły	-nia,
.	16cc/JJ	.	16cc\	nie-	ka-
!!LO:LB:g=original
=10	=10	=10	=10	=10	=10
*	*	*	*	*v:1	*v:2
(8GG\L	8b-/L	4r	8b-\	-ste-	-wiar-
8D\ 8B-	[<8g/J	.	[8g/	-ty	-nie,
8G\ 8B- 8d	16g/LL]	8r	16g/]	.	.
.	16g/	.	16g/	i-	wy-
8F\J)	16a/	8d-X\	16a/	-na-	-peł-
.	16b-/JJ	.	16b-\	-czej	-nią
=11	=11	=11	=11	=11	=11
(8EE/L 8E	8.cc/L	8c\L 8g	8.cc\	zresz-	sens
8CC/ 8C	.	8e\J	.	.	.
.	16dd/Jk	.	16dd\	-tą	tra-
8DD/ 8D	8.cc/L	8f\L	8.cc\	być	-co-
8EE/J) 8E	.	8c\J 8g	.	.	.
.	16b-/Jk	.	16b-\	nie	-nych
=12	=12	=12	=12	=12	=12
(8FF/L 8C	8a/L	8A\L	8a/	mo-	go-
8BB-/ 8D	8f/J	8A-X\	8f/	-że	-dzin,
8AA/ 8C#X	8rff	8G\J 8e 8a	8r	.	.
8AAA/J)	16r	8ryy	16r	.	.
.	16An/	.	16A/	Nie	Moc
=13	=13	=13	=13	=13	=13
8BBn/L 8D	8e/L	4G#X\	8e/	dob-	ko-
8BB-X/J 8D	16e/L	.	16e/	-rze	-biet
.	16e/JJ	.	16e/	mi	wy-
8AA/L 8C#X	8a/L	8A\L	8a/	bę-	-twor-
8CC#X/J 8C#	16a/L	8A\J 8e	16a/	-dzie	-nie
.	16g/JJ	.	16g/	bez	u-
=14	=14	=14	=14	=14	=14
(8DD/L	8f/L	4A\	8f/	cie-	-bra-
8AA/ 8F	8d/J	.	8d/	-bie	-nych
8D/J) 8A	8r	4ryy	8r	.	.
8r	8A/	.	8A/	lecz	tak
!!LO:LB:g=original
=15	=15	=15	=15	=15	=15
*	*	*	*	*v:1	*v:2
8BB-/L 8D	8e/L	8G\L	8e/	ja-	mi-
8BBn/ 8D	16e/L	8G#X\	16e/	-koś	-łych,
.	16e/JJ	.	16e/	u-	o
8AA/ 8C#X	8a/L	8A\	8a/	-po-	ser-
8CC#X/J 8C#	16a/L	8A\J	16a/	-ram	-cach
.	16g/JJ	.	16g/	się	tak
*	*v	*v	*	*	*
=16	=16	=16	=16	=16
(8DD/L	4f/	4f/	z tym.	złych,
8D/ 8A	.	.	.	.
8AA/J) 8F	8r	8r	.	.
8r	8d/	8d/	Chcesz	Prze-
=17	=17	=17	=17	=17
*	*^	*	*	*
8EE-X/L	8a/L	8rc	8a/	wier-	-pły-
8C/J 8G	16a/L	8c\ 8e-X	16a/	-ność	-nie,
.	16a/JJ	.	16a/	przy-	aż
8DD/L	8dd/L	8r	8dd\	-rze-	wresz-
8D/J 8F#X	16dd/L	8d\ 8a	16dd\	-kać?	-cie,
.	16ee-X/JJ	.	16ee-X\	Nie	ko-
*	*v	*v	*	*	*
=18	=18	=18	=18	=18
8GG\L	8b-/L 8dd	8dd\	trze-	-cha-
8G\ 8B- 8d	[8g/J [8b-	[8b-\	-ba.	-ny,
8E\J 8B- 8d	16g/LL] 16b-]	16b-\]	.	.
.	16b-/	16b-\	Ja	znu-
8r	16a/	16a/	mój	-ży
.	16g/JJ	16g/	ko-	cię
!!LO:PB:g=original
=19	=19	=19	=19	=19
*	*^	*	*	*
*	*	*	*	*v:1	*v:2
4AA/ 4D	8.f/L	4A\	8.f/	-cha-	sza-
.	16d/Jk	.	16d/	-ny	-blon
8BB-/L 8D	8f/L	8G#X\L	8f/	je-	wra-
8BBn/J 8D	16e/L	8G#\J	(16e/	-dno	-żeń
.	16Bn/JJ	.	16Bn/)	.	.
*	*v	*v	*	*	*
=20	=20	=20	=20	=20
(8AA/L 8C#X	4.AZ/ 4.e	4.eZ/	wiem...	tych...
8EE/	.	.	.	.
8AAAZ/J)	.	.	.	.
8r	16a/LL	16a/	Ty	I
.	16e/JJ	16e/	za-	po-
=21||	=21||	=21||	=21||	=21||
8AA\L 8G	8a/L	8a/	-po-	-my-
8E\ 8A	16a/L	16a/	-mnisz	-ślisz
.	16e/JJ	16e/	o	o
8G\J 8c#X	8a/L	8a/	le-	let-
8r	16a/L	16a/	-tniej	-niej
.	16g/JJ	16g/	przy-	przy-
=22	=22	=22	=22	=22
(8DD\L	8f/L	8f/	-go-	-go-
8F\ 8A	8d/J	8d/	-dzie,	-dzie,
8A\J) 8d	8r	8r	.	.
8r	16a/LL	16a/	o	o
.	16e/JJ	16e/	ła-	ła-
=23	=23	=23	=23	=23
*	*^	*	*	*
(8CC#X/L	8a/L	8r	8a/	-wecz-	-wecz-
8AA/	16a/L	8c#X\	16a/	-ce	-ce
.	16e/JJ	.	16e/	w zie-	w zie-
8BB-/	8a/L	8d\L	8a/	-lo-	-lo-
8C#X/J)	16a/L	8A\J	16a/	-nym	-nym
.	16g/JJ	.	16g/	o-	o-
*	*v	*v	*	*	*
!!LO:LB:g=original
=24	=24	=24	=24	=24
*	*	*	*v:1	*v:2
(8D\L	8f/L	8f/	-gro-	-gro-
8F\ 8A	8d/J	8d/	-dzie,	-dzie,
8A\J) 8d	8r	8r	.	.
8r	16dd\LL	16dd\	o	o-
.	16a\JJ	16a/	cze-	-cze-
=25	=25	=25	=25	=25
(8FF#X\L	8dd\L	8dd\	-rem-	-rem-
8D\ 8A	16dd\L	16dd\	-chach,	-chach,
.	16a\JJ	16a/	co	co
8A\J) 8c	8dd\L	8dd\	słod-	słod-
8r	16dd\L	16dd\	-ko	-ko
.	16cc\JJ	16cc\	pach-	pach-
=26	=26	=26	=26	=26
*	*^	*	*	*
(8GG\L	8b-/L	4ryy	8b-\	-nia-	-nia-
8D\ 8B-	[8g/J	.	[8g/	-ły	-ły
8G\ 8B- 8d	16g/LL]	8ryy	16g/]	.	.
.	16g/	.	16g/	i	i
8F\J)	16a/	8d-X\	16a/	płat-	płat-
.	16b-/JJ	.	16b-\	-ki	-ki
=27	=27	=27	=27	=27	=27
8E\L	8.cc/L	8c\L 8g	8.cc\	wkrąg	wkrąg
8C\	.	8e\	.	.	.
.	16dd/Jk	.	16dd\	sy-	sy-
8D\	16cc/LL	8f\	16cc\	-pa-	-pa-
.	16b-/	.	16b-\	-ły	-ły
8E\J	16a/	8c\J	16a/	tak	tak
.	16g/JJ	.	16g/	jak	jak
!!LO:LB:g=original
=28	=28	=28	=28	=28	=28
*	*	*	*	*v:1	*v:2
8F/L	[4a/	8r	[4a/	deszcz.	deszcz.
8FF/ 8C	.	8A\L 8f	.	.	.
8AA/J 8C#X	8a/]	8G\J 8e	8a/]	.	.
8r	16a/LL	8r	16a/	O	I
.	16e/JJ	.	16e/	spa-	za-
*	*v	*v	*	*	*
=29	=29	=29	=29	=29
(8C#X\L	8a/L	8a/	-ce-	-tę-
8E\ 8A	16a/L	16a/	-rach	-sknisz
.	16e/JJ	16e/	wśród	do
8G\J) 8c#X	8a/L	8a/	ła-	ła-
8r	16a/L	16a/	-nów	-nów
.	16g/JJ	16g/	szu-	szu-
=30	=30	=30	=30	=30
(8DD\L	8f/L	8f/	-mią-	-mią-
8D\ 8F	8d/J	8d/	-cych,	-cych,
8F\J) 8A	8r	8r	.	.
8r	16dd\LL	16dd\	o	do
.	16a\JJ	16a/	dniach	dni
=31	=31	=31	=31	=31
(8FF#X\L	8dd\L	8dd\	par-	par-
8D\ 8A	16dd\L	16dd\	-nych	-nych
.	16a\JJ	16a/	i	i
8A\J) 8c	8dd\L	8dd\	no-	no-
8r	16dd\L	16dd\	-cach	-cy
.	16cc\JJ	16cc\	go-	go-
!!LO:LB:g=original
=32	=32	=32	=32	=32
*	*	*	*v:1	*v:2
(8GG\L	8b-/L	8b-\	-rą-	-rą-
8D\ 8B-	8g/J	8g/	-cych,	-cych,
8G\J) 8B- 8d	8r	8r	.	.
8r	16e/LL	16e/	o	do
.	16f/JJ	16f/	al-	al-
=33	=33	=33	=33	=33
*	*^	*	*	*
4GG/ 4E	8g/L	4B-\	8g/	-tan-	-tan-
.	16f/L	.	16f/	-ce	-ki
.	16e/JJ	.	16e/	wśród	wśród
4GG#X/ 4F	8b-/L	4d\	8b-\	sta-	sta-
.	16a/L	.	16a/	-rych	-rych
.	16g#X/JJ	.	16g#X/	a-	a-
=34	=34	=34	=34	=34	=34
(8AA\L 8F	8b-/L	4d\	8b-\	-ka-	-ka-
8F\ 8A	[<8a/J	.	[8a/	-cji,	-cji,
8A\J) 8d	8a/L]	4ryy	8a/]	.	.
8r	16d/L	.	16d/	o	do
.	16e/JJ	.	16e/	ko-	ko-
=35	=35	=35	=35	=35	=35
8BBn/L 8D	8f/L	8A\L	8f/	-chan-	-chan-
8BB/J 8D	16f/L	8A-X\	16f/	-ce	-ki
.	16f/JJ	.	16f/	z wa-	z wa-
8BB-X/L 8D	8e/L	8A-\	8e/	-ka-	-ka-
8AA/J 8C#X	8e/J	8G\J	8e/	-cji	-cji
*	*v	*v	*	*	*
=36	=36	=36	=36	=36
(8D/L	4.F/ 4.A 4.d	4.d/	też.	też.
8AA/	.	.	.	.
8DD/J)	.	.	.	.
8r	8r	8r	.	.
==	==	==	==	==
*-	*-	*-	*-	*-
!!!system-decoration: s1{(s2,s3)}
!!!RDF**kern: Z = caesura
!!!RDF**kern: < = below
!!!RDF**kern: > = above
!!!ENC: Anastazja Marusiak
!!!END: 2023-08-29
!!!ENC: Marta Chmielewska
!!!END: 2023-09-23
